assets/images/note.svg

<svg xmlns="http://www.w3.org/2000/svg" viewBox="0 0 500 500"><path d="M437.7 94.8h-93.6V1.2l93.6 93.6zm31.2 31.1V500H32.3V1.2h280.5v124.7h156.1zm-374.1 0h187.1V94.8H94.8v31.1zm311.6 249.4H94.8v31.1h311.8l-.2-31.1zm0-93.6H94.8v31.1h311.8l-.2-31.1zm0-93.4H94.8v31.1h311.8l-.2-31.1z"/></svg>

<?xml version="1.0" encoding="utf-8"?>
<!-- Generator: Adobe Illustrator 22.0.1, SVG Export Plug-In . SVG Version: 6.00 Build 0)  -->
<svg version="1.1" id="Layer_1" xmlns="http://www.w3.org/2000/svg" xmlns:xlink="http://www.w3.org/1999/xlink" x="0px" y="0px"
	 viewBox="0 0 500 500" style="enable-background:new 0 0 500 500;" xml:space="preserve">
<path id="d" d="M437.7,94.8h-93.6V1.2L437.7,94.8z M468.9,125.9V500H32.3V1.2h280.5v124.7C312.8,125.9,468.9,125.9,468.9,125.9z
	 M94.8,125.9h187.1V94.8H94.8V125.9z M406.4,375.3H94.8v31.1h311.8L406.4,375.3L406.4,375.3z M406.4,281.7H94.8v31.1h311.8
	L406.4,281.7L406.4,281.7z M406.4,188.3H94.8v31.1h311.8L406.4,188.3L406.4,188.3z"/>
</svg>
